Catalina-light/actions/16/depth8to16.svg

<svg width="16" height="16" viewBox="0 0 16 16" xmlns="http://www.w3.org/2000/svg">
<defs>
<style id="current-color-scheme" type="text/css">.ColorScheme-Text { color:#5c616c; } .ColorScheme-Highlight { color:#5294e2; }</style>
</defs>
<path class="ColorScheme-Text" d="m4 1a2 2 0 0 0-2 2 2 2 0 0 0 0.67969 1.5 2 2 0 0 0-0.67969 1.5 2 2 0 0 0 2 2 2 2 0 0 0 2-2 2 2 0 0 0-0.67969-1.5 2 2 0 0 0 0.67969-1.5 2 2 0 0 0-2-2zm4 0v1a7 7 0 0 1 6.3086 4h-3.6094v1h5v-5h-1v2.6562a8 8 0 0 0-6.6992-3.6562zm-4 1a1 1 0 0 1 1 1 1 1 0 0 1-1 1 1 1 0 0 1-1-1 1 1 0 0 1 1-1zm0 3a1 1 0 0 1 1 1 1 1 0 0 1-1 1 1 1 0 0 1-1-1 1 1 0 0 1 1-1zm5 3v1h1v6h1v-7h-2zm5 0a2 2 0 0 0-2 2v3a2 2 0 0 0 2 2 2 2 0 0 0 2-2 2 2 0 0 0-2-2 2 2 0 0 0-1 0.26953v-1.2695a1 1 0 0 1 1-1 1 1 0 0 1 1 1h1a2 2 0 0 0-2-2zm-13 1v5h1v-2.6562a8 8 0 0 0 6.6992 3.6562v-1a7 7 0 0 1-6.3086-4h3.6094v-1h-5zm13 3a1 1 0 0 1 1 1 1 1 0 0 1-1 1 1 1 0 0 1-1-1 1 1 0 0 1 1-1z" fill="currentColor"/>
</svg>

<svg xmlns="http://www.w3.org/2000/svg" width="16" height="16" viewBox="0 0 16 16">
 <defs>
  <style id="current-color-scheme" type="text/css">
   .ColorScheme-Text { color:#5c616c; } .ColorScheme-Highlight { color:#5294e2; }
  </style>
 </defs>
 <path style="fill:currentColor" class="ColorScheme-Text" d="M 4 1 A 2 2 0 0 0 2 3 A 2 2 0 0 0 2.6796875 4.5 A 2 2 0 0 0 2 6 A 2 2 0 0 0 4 8 A 2 2 0 0 0 6 6 A 2 2 0 0 0 5.3203125 4.5 A 2 2 0 0 0 6 3 A 2 2 0 0 0 4 1 z M 8 1 L 8 2 A 7 7 0 0 1 14.308594 6 L 10.699219 6 L 10.699219 7 L 14.699219 7 L 15.699219 7 L 15.699219 6.8867188 L 15.699219 6 L 15.699219 2 L 14.699219 2 L 14.699219 4.65625 A 8 8 0 0 0 8 1 z M 4 2 A 1 1 0 0 1 5 3 A 1 1 0 0 1 4 4 A 1 1 0 0 1 3 3 A 1 1 0 0 1 4 2 z M 4 5 A 1 1 0 0 1 5 6 A 1 1 0 0 1 4 7 A 1 1 0 0 1 3 6 A 1 1 0 0 1 4 5 z M 9 8 L 9 9 L 10 9 L 10 15 L 11 15 L 11 8 L 10 8 L 9 8 z M 14 8 A 2 2 0 0 0 12 10 L 12 13 A 2 2 0 0 0 14 15 A 2 2 0 0 0 16 13 A 2 2 0 0 0 14 11 A 2 2 0 0 0 13 11.269531 L 13 10 A 1 1 0 0 1 14 9 A 1 1 0 0 1 15 10 L 16 10 A 2 2 0 0 0 14 8 z M 1 9 L 1 9.1132812 L 1 10 L 1 14 L 2 14 L 2 11.34375 A 8 8 0 0 0 8.6992188 15 L 8.6992188 14 A 7 7 0 0 1 2.390625 10 L 6 10 L 6 9 L 1.9980469 9 L 1 9 z M 14 12 A 1 1 0 0 1 15 13 A 1 1 0 0 1 14 14 A 1 1 0 0 1 13 13 A 1 1 0 0 1 14 12 z"/>
</svg>
